(Gcode generated bY- ChiliPeppr Svg2Gcode Widget)
G21 (mm)
G0 X221.410 Y-118.550

G1 F200 X0.000 Y-118.550
G1 X221.410 Y-118.550

G0 X221.410 Y-0.000

G1 F200 X0.000 Y-0.000
G1 X221.410 Y-0.000

G0 X21.480 Y-43.590

G1 F200 X21.480 Y-52.470
G1 X21.480 Y-43.590

G0 X44.770 Y-39.300

G1 F200 X44.770 Y-48.520
G1 X44.770 Y-39.300

G0 X49.190 Y-34.110

G1 F200 X49.190 Y-43.760
G1 X49.190 Y-34.110

G0 X70.260 Y-26.480

G1 F200 X70.260 Y-36.720
G1 X70.260 Y-26.480

G0 X74.680 Y-20.640

G1 F200 X74.680 Y-30.070
G1 X74.680 Y-20.640

G0 X95.750 Y-16.670

G1 F200 X95.750 Y-25.610
G1 X95.750 Y-16.670

G0 X100.170 Y-14.890

G1 F200 X100.170 Y-23.640
G1 X100.170 Y-14.890

G0 X103.790 Y-11.000

G1 F200 X107.250 Y-10.810
G1 X103.790 Y-11.000

G0 X107.250 Y-10.810

G1 F200 X110.710 Y-10.740
G1 X107.250 Y-10.810

G0 X100.170 Y-14.890

G1 F200 X100.350 Y-13.740
G1 X100.170 Y-14.890

G0 X100.350 Y-13.740

G1 F200 X100.850 Y-12.690
G1 X100.350 Y-13.740

G0 X100.850 Y-12.690

G1 F200 X101.640 Y-11.840
G1 X100.850 Y-12.690

G0 X101.640 Y-11.840

G1 F200 X102.650 Y-11.260
G1 X101.640 Y-11.840

G0 X102.650 Y-11.260

G1 F200 X103.790 Y-11.000
G1 X102.650 Y-11.260

G0 X77.180 Y-17.000

G1 F200 X81.720 Y-15.380
G1 X77.180 Y-17.000

G0 X81.720 Y-15.380

G1 F200 X86.340 Y-14.000
G1 X81.720 Y-15.380

G0 X86.340 Y-14.000

G1 F200 X91.020 Y-12.850
G1 X86.340 Y-14.000

G0 X91.020 Y-12.850

G1 F200 X92.170 Y-12.780
G1 X91.020 Y-12.850

G0 X92.170 Y-12.780

G1 F200 X93.300 Y-13.040
G1 X92.170 Y-12.780

G0 X93.300 Y-13.040

G1 F200 X94.300 Y-13.630
G1 X93.300 Y-13.040

G0 X94.300 Y-13.630

G1 F200 X95.080 Y-14.480
G1 X94.300 Y-13.630

G0 X95.080 Y-14.480

G1 F200 X95.580 Y-15.520
G1 X95.080 Y-14.480

G0 X95.580 Y-15.520

G1 F200 X95.750 Y-16.670
G1 X95.580 Y-15.520

G0 X74.680 Y-20.640

G1 F200 X74.860 Y-19.490
G1 X74.680 Y-20.640

G0 X74.860 Y-19.490

G1 F200 X75.360 Y-18.440
G1 X74.860 Y-19.490

G0 X75.360 Y-18.440

G1 F200 X76.160 Y-17.580
G1 X75.360 Y-18.440

G0 X76.160 Y-17.580

G1 F200 X77.180 Y-17.000
G1 X76.160 Y-17.580

G0 X59.460 Y-26.160

G1 F200 X64.410 Y-23.100
G1 X59.460 Y-26.160

G0 X64.410 Y-23.100

G1 F200 X65.490 Y-22.680
G1 X64.410 Y-23.100

G0 X65.490 Y-22.680

G1 F200 X66.650 Y-22.590
G1 X65.490 Y-22.680

G0 X66.650 Y-22.590

G1 F200 X67.780 Y-22.850
G1 X66.650 Y-22.590

G0 X67.780 Y-22.850

G1 F200 X68.790 Y-23.430
G1 X67.780 Y-22.850

G0 X68.790 Y-23.430

G1 F200 X69.580 Y-24.290
G1 X68.790 Y-23.430

G0 X69.580 Y-24.290

G1 F200 X70.080 Y-25.330
G1 X69.580 Y-24.290

G0 X70.080 Y-25.330

G1 F200 X70.260 Y-26.480
G1 X70.080 Y-25.330

G0 X59.460 Y-26.160

G1 F200 X55.450 Y-28.470
G1 X59.460 Y-26.160

G0 X55.450 Y-28.470

G1 F200 X51.360 Y-30.620
G1 X55.450 Y-28.470

G0 X49.190 Y-34.110

G1 F200 X49.340 Y-33.040
G1 X49.190 Y-34.110

G0 X49.340 Y-33.040

G1 F200 X49.770 Y-32.060
G1 X49.340 Y-33.040

G0 X49.770 Y-32.060

G1 F200 X50.470 Y-31.230
G1 X49.770 Y-32.060

G0 X50.470 Y-31.230

G1 F200 X51.360 Y-30.620
G1 X50.470 Y-31.230

G0 X39.550 Y-35.630

G1 F200 X34.640 Y-37.240
G1 X39.550 Y-35.630

G0 X34.640 Y-37.240

G1 F200 X29.660 Y-38.620
G1 X34.640 Y-37.240

G0 X29.660 Y-38.620

G1 F200 X24.620 Y-39.770
G1 X29.660 Y-38.620

G0 X39.550 Y-35.630

G1 F200 X40.770 Y-35.400
G1 X39.550 Y-35.630

G0 X40.770 Y-35.400

G1 F200 X42.000 Y-35.570
G1 X40.770 Y-35.400

G0 X42.000 Y-35.570

G1 F200 X43.110 Y-36.110
G1 X42.000 Y-35.570

G0 X43.110 Y-36.110

G1 F200 X44.000 Y-36.980
G1 X43.110 Y-36.110

G0 X44.000 Y-36.980

G1 F200 X44.570 Y-38.080
G1 X44.000 Y-36.980

G0 X44.570 Y-38.080

G1 F200 X44.770 Y-39.300
G1 X44.570 Y-38.080

G0 X21.480 Y-43.590

G1 F200 X21.630 Y-42.530
G1 X21.480 Y-43.590

G0 X21.630 Y-42.530

G1 F200 X22.060 Y-41.560
G1 X21.630 Y-42.530

G0 X22.060 Y-41.560

G1 F200 X22.730 Y-40.730
G1 X22.060 Y-41.560

G0 X22.730 Y-40.730

G1 F200 X23.610 Y-40.120
G1 X22.730 Y-40.730

G0 X23.610 Y-40.120

G1 F200 X24.620 Y-39.770
G1 X23.610 Y-40.120

G0 X104.400 Y-27.530

G1 F200 X107.550 Y-27.330
G1 X104.400 Y-27.530

G0 X107.550 Y-27.330

G1 F200 X110.710 Y-27.260
G1 X107.550 Y-27.330

G0 X104.400 Y-27.530

G1 F200 X103.330 Y-27.470
G1 X104.400 Y-27.530

G0 X103.330 Y-27.470

G1 F200 X102.310 Y-27.120
G1 X103.330 Y-27.470

G0 X102.310 Y-27.120

G1 F200 X101.430 Y-26.510
G1 X102.310 Y-27.120

G0 X101.430 Y-26.510

G1 F200 X100.750 Y-25.680
G1 X101.430 Y-26.510

G0 X100.750 Y-25.680

G1 F200 X100.320 Y-24.700
G1 X100.750 Y-25.680

G0 X100.320 Y-24.700

G1 F200 X100.170 Y-23.640
G1 X100.320 Y-24.700

G0 X80.150 Y-33.650

G1 F200 X84.270 Y-31.990
G1 X80.150 Y-33.650

G0 X84.270 Y-31.990

G1 F200 X88.480 Y-30.570
G1 X84.270 Y-31.990

G0 X88.480 Y-30.570

G1 F200 X92.760 Y-29.400
G1 X88.480 Y-30.570

G0 X95.750 Y-25.610

G1 F200 X95.610 Y-26.640
G1 X95.750 Y-25.610

G0 X95.610 Y-26.640

G1 F200 X95.210 Y-27.590
G1 X95.610 Y-26.640

G0 X95.210 Y-27.590

G1 F200 X94.570 Y-28.410
G1 X95.210 Y-27.590

G0 X94.570 Y-28.410

G1 F200 X93.730 Y-29.030
G1 X94.570 Y-28.410

G0 X93.730 Y-29.030

G1 F200 X92.760 Y-29.400
G1 X93.730 Y-29.030

G0 X80.150 Y-33.650

G1 F200 X79.080 Y-33.940
G1 X80.150 Y-33.650

G0 X79.080 Y-33.940

G1 F200 X77.980 Y-33.920
G1 X79.080 Y-33.940

G0 X77.980 Y-33.920

G1 F200 X76.930 Y-33.600
G1 X77.980 Y-33.920

G0 X76.930 Y-33.600

G1 F200 X76.010 Y-33.000
G1 X76.930 Y-33.600

G0 X76.010 Y-33.000

G1 F200 X75.290 Y-32.160
G1 X76.010 Y-33.000

G0 X75.290 Y-32.160

G1 F200 X74.840 Y-31.160
G1 X75.290 Y-32.160

G0 X74.840 Y-31.160

G1 F200 X74.680 Y-30.070
G1 X74.840 Y-31.160

G0 X68.330 Y-40.100

G1 F200 X68.510 Y-39.980
G1 X68.330 Y-40.100

G0 X70.260 Y-36.720

G1 F200 X70.140 Y-37.680
G1 X70.260 Y-36.720

G0 X70.140 Y-37.680

G1 F200 X69.790 Y-38.570
G1 X70.140 Y-37.680

G0 X69.790 Y-38.570

G1 F200 X69.240 Y-39.350
G1 X69.790 Y-38.570

G0 X69.240 Y-39.350

G1 F200 X68.510 Y-39.980
G1 X69.240 Y-39.350

G0 X68.330 Y-40.100

G1 F200 X63.890 Y-42.690
G1 X68.330 Y-40.100

G0 X63.890 Y-42.690

G1 F200 X59.340 Y-45.100
G1 X63.890 Y-42.690

G0 X59.340 Y-45.100

G1 F200 X54.700 Y-47.320
G1 X59.340 Y-45.100

G0 X54.700 Y-47.320

G1 F200 X53.640 Y-47.630
G1 X54.700 Y-47.320

G0 X53.640 Y-47.630

G1 F200 X52.530 Y-47.620
G1 X53.640 Y-47.630

G0 X52.530 Y-47.620

G1 F200 X51.460 Y-47.310
G1 X52.530 Y-47.620

G0 X51.460 Y-47.310

G1 F200 X50.530 Y-46.710
G1 X51.460 Y-47.310

G0 X50.530 Y-46.710

G1 F200 X49.810 Y-45.870
G1 X50.530 Y-46.710

G0 X49.810 Y-45.870

G1 F200 X49.350 Y-44.860
G1 X49.810 Y-45.870

G0 X49.350 Y-44.860

G1 F200 X49.190 Y-43.760
G1 X49.350 Y-44.860

G0 X42.080 Y-52.220

G1 F200 X36.810 Y-53.820
G1 X42.080 Y-52.220

G0 X36.810 Y-53.820

G1 F200 X31.490 Y-55.180
G1 X36.810 Y-53.820

G0 X31.490 Y-55.180

G1 F200 X26.100 Y-56.310
G1 X31.490 Y-55.180

G0 X26.100 Y-56.310

G1 F200 X24.970 Y-56.350
G1 X26.100 Y-56.310

G0 X24.970 Y-56.350

G1 F200 X23.860 Y-56.060
G1 X24.970 Y-56.350

G0 X23.860 Y-56.060

G1 F200 X22.890 Y-55.470
G1 X23.860 Y-56.060

G0 X22.890 Y-55.470

G1 F200 X22.130 Y-54.630
G1 X22.890 Y-55.470

G0 X22.130 Y-54.630

G1 F200 X21.650 Y-53.600
G1 X22.130 Y-54.630

G0 X21.650 Y-53.600

G1 F200 X21.480 Y-52.470
G1 X21.650 Y-53.600

G0 X44.770 Y-48.520

G1 F200 X44.570 Y-49.720
G1 X44.770 Y-48.520

G0 X44.570 Y-49.720

G1 F200 X44.020 Y-50.810
G1 X44.570 Y-49.720

G0 X44.020 Y-50.810

G1 F200 X43.160 Y-51.670
G1 X44.020 Y-50.810

G0 X43.160 Y-51.670

G1 F200 X42.080 Y-52.220
G1 X43.160 Y-51.670

G0 X199.930 Y-43.590

G1 F200 X199.930 Y-52.470
G1 X199.930 Y-43.590

G0 X176.650 Y-39.300

G1 F200 X176.650 Y-48.520
G1 X176.650 Y-39.300

G0 X172.230 Y-34.110

G1 F200 X172.230 Y-43.760
G1 X172.230 Y-34.110

G0 X151.160 Y-26.480

G1 F200 X151.160 Y-36.720
G1 X151.160 Y-26.480

G0 X146.740 Y-20.640

G1 F200 X146.740 Y-30.070
G1 X146.740 Y-20.640

G0 X125.670 Y-16.670

G1 F200 X125.670 Y-25.610
G1 X125.670 Y-16.670

G0 X121.240 Y-14.890

G1 F200 X121.240 Y-23.640
G1 X121.240 Y-14.890

G0 X110.710 Y-10.740

G1 F200 X114.170 Y-10.810
G1 X110.710 Y-10.740

G0 X114.170 Y-10.810

G1 F200 X117.630 Y-11.000
G1 X114.170 Y-10.810

G0 X117.630 Y-11.000

G1 F200 X118.770 Y-11.260
G1 X117.630 Y-11.000

G0 X118.770 Y-11.260

G1 F200 X119.770 Y-11.840
G1 X118.770 Y-11.260

G0 X119.770 Y-11.840

G1 F200 X120.560 Y-12.690
G1 X119.770 Y-11.840

G0 X120.560 Y-12.690

G1 F200 X121.070 Y-13.740
G1 X120.560 Y-12.690

G0 X121.070 Y-13.740

G1 F200 X121.240 Y-14.890
G1 X121.070 Y-13.740

G0 X130.400 Y-12.850

G1 F200 X135.080 Y-14.000
G1 X130.400 Y-12.850

G0 X135.080 Y-14.000

G1 F200 X139.700 Y-15.380
G1 X135.080 Y-14.000

G0 X139.700 Y-15.380

G1 F200 X144.240 Y-17.000
G1 X139.700 Y-15.380

G0 X125.670 Y-16.670

G1 F200 X125.840 Y-15.520
G1 X125.670 Y-16.670

G0 X125.840 Y-15.520

G1 F200 X126.340 Y-14.480
G1 X125.840 Y-15.520

G0 X126.340 Y-14.480

G1 F200 X127.120 Y-13.630
G1 X126.340 Y-14.480

G0 X127.120 Y-13.630

G1 F200 X128.120 Y-13.040
G1 X127.120 Y-13.630

G0 X128.120 Y-13.040

G1 F200 X129.240 Y-12.780
G1 X128.120 Y-13.040

G0 X129.240 Y-12.780

G1 F200 X130.400 Y-12.850
G1 X129.240 Y-12.780

G0 X144.240 Y-17.000

G1 F200 X145.260 Y-17.580
G1 X144.240 Y-17.000

G0 X145.260 Y-17.580

G1 F200 X146.050 Y-18.440
G1 X145.260 Y-17.580

G0 X146.050 Y-18.440

G1 F200 X146.560 Y-19.490
G1 X146.050 Y-18.440

G0 X146.560 Y-19.490

G1 F200 X146.740 Y-20.640
G1 X146.560 Y-19.490

G0 X157.010 Y-23.100

G1 F200 X161.960 Y-26.160
G1 X157.010 Y-23.100

G0 X151.160 Y-26.480

G1 F200 X151.330 Y-25.330
G1 X151.160 Y-26.480

G0 X151.330 Y-25.330

G1 F200 X151.840 Y-24.290
G1 X151.330 Y-25.330

G0 X151.840 Y-24.290

G1 F200 X152.630 Y-23.430
G1 X151.840 Y-24.290

G0 X152.630 Y-23.430

G1 F200 X153.630 Y-22.850
G1 X152.630 Y-23.430

G0 X153.630 Y-22.850

G1 F200 X154.770 Y-22.590
G1 X153.630 Y-22.850

G0 X154.770 Y-22.590

G1 F200 X155.920 Y-22.680
G1 X154.770 Y-22.590

G0 X155.920 Y-22.680

G1 F200 X157.010 Y-23.100
G1 X155.920 Y-22.680

G0 X170.060 Y-30.620

G1 F200 X165.960 Y-28.470
G1 X170.060 Y-30.620

G0 X165.960 Y-28.470

G1 F200 X161.960 Y-26.160
G1 X165.960 Y-28.470

G0 X170.060 Y-30.620

G1 F200 X170.950 Y-31.230
G1 X170.060 Y-30.620

G0 X170.950 Y-31.230

G1 F200 X171.640 Y-32.060
G1 X170.950 Y-31.230

G0 X171.640 Y-32.060

G1 F200 X172.080 Y-33.040
G1 X171.640 Y-32.060

G0 X172.080 Y-33.040

G1 F200 X172.230 Y-34.110
G1 X172.080 Y-33.040

G0 X196.800 Y-39.770

G1 F200 X191.760 Y-38.620
G1 X196.800 Y-39.770

G0 X191.760 Y-38.620

G1 F200 X186.780 Y-37.240
G1 X191.760 Y-38.620

G0 X186.780 Y-37.240

G1 F200 X181.860 Y-35.630
G1 X186.780 Y-37.240

G0 X176.650 Y-39.300

G1 F200 X176.850 Y-38.080
G1 X176.650 Y-39.300

G0 X176.850 Y-38.080

G1 F200 X177.420 Y-36.980
G1 X176.850 Y-38.080

G0 X177.420 Y-36.980

G1 F200 X178.310 Y-36.110
G1 X177.420 Y-36.980

G0 X178.310 Y-36.110

G1 F200 X179.420 Y-35.570
G1 X178.310 Y-36.110

G0 X179.420 Y-35.570

G1 F200 X180.650 Y-35.400
G1 X179.420 Y-35.570

G0 X180.650 Y-35.400

G1 F200 X181.860 Y-35.630
G1 X180.650 Y-35.400

G0 X196.800 Y-39.770

G1 F200 X197.810 Y-40.120
G1 X196.800 Y-39.770

G0 X197.810 Y-40.120

G1 F200 X198.680 Y-40.730
G1 X197.810 Y-40.120

G0 X198.680 Y-40.730

G1 F200 X199.360 Y-41.560
G1 X198.680 Y-40.730

G0 X199.360 Y-41.560

G1 F200 X199.790 Y-42.530
G1 X199.360 Y-41.560

G0 X199.790 Y-42.530

G1 F200 X199.930 Y-43.590
G1 X199.790 Y-42.530

G0 X110.710 Y-27.260

G1 F200 X113.870 Y-27.330
G1 X110.710 Y-27.260

G0 X113.870 Y-27.330

G1 F200 X117.020 Y-27.530
G1 X113.870 Y-27.330

G0 X121.240 Y-23.640

G1 F200 X121.100 Y-24.700
G1 X121.240 Y-23.640

G0 X121.100 Y-24.700

G1 F200 X120.670 Y-25.680
G1 X121.100 Y-24.700

G0 X120.670 Y-25.680

G1 F200 X119.980 Y-26.510
G1 X120.670 Y-25.680

G0 X119.980 Y-26.510

G1 F200 X119.100 Y-27.120
G1 X119.980 Y-26.510

G0 X119.100 Y-27.120

G1 F200 X118.090 Y-27.470
G1 X119.100 Y-27.120

G0 X118.090 Y-27.470

G1 F200 X117.020 Y-27.530
G1 X118.090 Y-27.470

G0 X128.650 Y-29.400

G1 F200 X132.940 Y-30.570
G1 X128.650 Y-29.400

G0 X132.940 Y-30.570

G1 F200 X137.150 Y-31.990
G1 X132.940 Y-30.570

G0 X137.150 Y-31.990

G1 F200 X141.270 Y-33.650
G1 X137.150 Y-31.990

G0 X128.650 Y-29.400

G1 F200 X127.690 Y-29.030
G1 X128.650 Y-29.400

G0 X127.690 Y-29.030

G1 F200 X126.850 Y-28.410
G1 X127.690 Y-29.030

G0 X126.850 Y-28.410

G1 F200 X126.210 Y-27.590
G1 X126.850 Y-28.410

G0 X126.210 Y-27.590

G1 F200 X125.800 Y-26.640
G1 X126.210 Y-27.590

G0 X125.800 Y-26.640

G1 F200 X125.670 Y-25.610
G1 X125.800 Y-26.640

G0 X146.740 Y-30.070

G1 F200 X146.580 Y-31.160
G1 X146.740 Y-30.070

G0 X146.580 Y-31.160

G1 F200 X146.130 Y-32.160
G1 X146.580 Y-31.160

G0 X146.130 Y-32.160

G1 F200 X145.410 Y-33.000
G1 X146.130 Y-32.160

G0 X145.410 Y-33.000

G1 F200 X144.490 Y-33.600
G1 X145.410 Y-33.000

G0 X144.490 Y-33.600

G1 F200 X143.430 Y-33.920
G1 X144.490 Y-33.600

G0 X143.430 Y-33.920

G1 F200 X142.330 Y-33.940
G1 X143.430 Y-33.920

G0 X142.330 Y-33.940

G1 F200 X141.270 Y-33.650
G1 X142.330 Y-33.940

G0 X152.910 Y-39.980

G1 F200 X153.090 Y-40.100
G1 X152.910 Y-39.980

G0 X152.910 Y-39.980

G1 F200 X152.180 Y-39.350
G1 X152.910 Y-39.980

G0 X152.180 Y-39.350

G1 F200 X151.620 Y-38.570
G1 X152.180 Y-39.350

G0 X151.620 Y-38.570

G1 F200 X151.280 Y-37.680
G1 X151.620 Y-38.570

G0 X151.280 Y-37.680

G1 F200 X151.160 Y-36.720
G1 X151.280 Y-37.680

G0 X166.720 Y-47.320

G1 F200 X162.070 Y-45.100
G1 X166.720 Y-47.320

G0 X162.070 Y-45.100

G1 F200 X157.530 Y-42.690
G1 X162.070 Y-45.100

G0 X157.530 Y-42.690

G1 F200 X153.090 Y-40.100
G1 X157.530 Y-42.690

G0 X172.230 Y-43.760

G1 F200 X172.070 Y-44.860
G1 X172.230 Y-43.760

G0 X172.070 Y-44.860

G1 F200 X171.610 Y-45.870
G1 X172.070 Y-44.860

G0 X171.610 Y-45.870

G1 F200 X170.890 Y-46.710
G1 X171.610 Y-45.870

G0 X170.890 Y-46.710

G1 F200 X169.950 Y-47.310
G1 X170.890 Y-46.710

G0 X169.950 Y-47.310

G1 F200 X168.890 Y-47.620
G1 X169.950 Y-47.310

G0 X168.890 Y-47.620

G1 F200 X167.780 Y-47.630
G1 X168.890 Y-47.620

G0 X167.780 Y-47.630

G1 F200 X166.720 Y-47.320
G1 X167.780 Y-47.630

G0 X195.320 Y-56.310

G1 F200 X189.930 Y-55.180
G1 X195.320 Y-56.310

G0 X189.930 Y-55.180

G1 F200 X184.600 Y-53.820
G1 X189.930 Y-55.180

G0 X184.600 Y-53.820

G1 F200 X179.340 Y-52.220
G1 X184.600 Y-53.820

G0 X199.930 Y-52.470

G1 F200 X199.770 Y-53.600
G1 X199.930 Y-52.470

G0 X199.770 Y-53.600

G1 F200 X199.280 Y-54.630
G1 X199.770 Y-53.600

G0 X199.280 Y-54.630

G1 F200 X198.520 Y-55.470
G1 X199.280 Y-54.630

G0 X198.520 Y-55.470

G1 F200 X197.550 Y-56.060
G1 X198.520 Y-55.470

G0 X197.550 Y-56.060

G1 F200 X196.450 Y-56.350
G1 X197.550 Y-56.060

G0 X196.450 Y-56.350

G1 F200 X195.320 Y-56.310
G1 X196.450 Y-56.350

G0 X179.340 Y-52.220

G1 F200 X178.260 Y-51.670
G1 X179.340 Y-52.220

G0 X178.260 Y-51.670

G1 F200 X177.400 Y-50.810
G1 X178.260 Y-51.670

G0 X177.400 Y-50.810

G1 F200 X176.840 Y-49.720
G1 X177.400 Y-50.810

G0 X176.840 Y-49.720

G1 F200 X176.650 Y-48.520
G1 X176.840 Y-49.720

G0 X221.410 Y-118.550

G1 F200 X221.410 Y-0.000
G1 X221.410 Y-118.550

G0 X0.000 Y-118.550

G1 F200 X0.000 Y-0.000
G1 X0.000 Y-118.550

G0 X221.410 Y-31.100

G1 F200 X215.790 Y-31.120
G1 X221.410 Y-31.100

G0 X215.790 Y-31.120

G1 F200 X210.170 Y-30.830
G1 X215.790 Y-31.120

G0 X210.170 Y-30.830

G1 F200 X204.570 Y-30.200
G1 X210.170 Y-30.830

G0 X204.570 Y-30.200

G1 F200 X199.020 Y-29.260
G1 X204.570 Y-30.200

G0 X199.020 Y-29.260

G1 F200 X193.540 Y-27.990
G1 X199.020 Y-29.260

G0 X193.540 Y-27.990

G1 F200 X188.140 Y-26.420
G1 X193.540 Y-27.990

G0 X188.140 Y-26.420

G1 F200 X182.830 Y-24.530
G1 X188.140 Y-26.420

G0 X182.830 Y-24.530

G1 F200 X177.650 Y-22.340
G1 X182.830 Y-24.530

G0 X177.650 Y-22.340

G1 F200 X172.600 Y-19.850
G1 X177.650 Y-22.340

G0 X172.600 Y-19.850

G1 F200 X167.700 Y-17.080
G1 X172.600 Y-19.850

G0 X53.710 Y-17.080

G1 F200 X59.120 Y-13.750
G1 X53.710 Y-17.080

G0 X59.120 Y-13.750

G1 F200 X64.730 Y-10.760
G1 X59.120 Y-13.750

G0 X64.730 Y-10.760

G1 F200 X70.500 Y-8.120
G1 X64.730 Y-10.760

G0 X70.500 Y-8.120

G1 F200 X76.430 Y-5.830
G1 X70.500 Y-8.120

G0 X76.430 Y-5.830

G1 F200 X82.480 Y-3.920
G1 X76.430 Y-5.830

G0 X82.480 Y-3.920

G1 F200 X88.650 Y-2.380
G1 X82.480 Y-3.920

G0 X88.650 Y-2.380

G1 F200 X94.890 Y-1.220
G1 X88.650 Y-2.380

G0 X94.890 Y-1.220

G1 F200 X101.190 Y-0.440
G1 X94.890 Y-1.220

G0 X101.190 Y-0.440

G1 F200 X107.530 Y-0.050
G1 X101.190 Y-0.440

G0 X107.530 Y-0.050

G1 F200 X113.880 Y-0.050
G1 X107.530 Y-0.050

G0 X113.880 Y-0.050

G1 F200 X120.220 Y-0.440
G1 X113.880 Y-0.050

G0 X120.220 Y-0.440

G1 F200 X126.530 Y-1.220
G1 X120.220 Y-0.440

G0 X126.530 Y-1.220

G1 F200 X132.770 Y-2.380
G1 X126.530 Y-1.220

G0 X132.770 Y-2.380

G1 F200 X138.930 Y-3.920
G1 X132.770 Y-2.380

G0 X138.930 Y-3.920

G1 F200 X144.990 Y-5.830
G1 X138.930 Y-3.920

G0 X144.990 Y-5.830

G1 F200 X150.920 Y-8.120
G1 X144.990 Y-5.830

G0 X150.920 Y-8.120

G1 F200 X156.690 Y-10.760
G1 X150.920 Y-8.120

G0 X156.690 Y-10.760

G1 F200 X162.290 Y-13.750
G1 X156.690 Y-10.760

G0 X162.290 Y-13.750

G1 F200 X167.700 Y-17.080
G1 X162.290 Y-13.750

G0 X53.710 Y-17.080

G1 F200 X48.820 Y-19.850
G1 X53.710 Y-17.080

G0 X48.820 Y-19.850

G1 F200 X43.770 Y-22.340
G1 X48.820 Y-19.850

G0 X43.770 Y-22.340

G1 F200 X38.580 Y-24.530
G1 X43.770 Y-22.340

G0 X38.580 Y-24.530

G1 F200 X33.280 Y-26.420
G1 X38.580 Y-24.530

G0 X33.280 Y-26.420

G1 F200 X27.880 Y-27.990
G1 X33.280 Y-26.420

G0 X27.880 Y-27.990

G1 F200 X22.390 Y-29.260
G1 X27.880 Y-27.990

G0 X22.390 Y-29.260

G1 F200 X16.850 Y-30.200
G1 X22.390 Y-29.260

G0 X16.850 Y-30.200

G1 F200 X11.250 Y-30.830
G1 X16.850 Y-30.200

G0 X11.250 Y-30.830

G1 F200 X5.630 Y-31.120
G1 X11.250 Y-30.830

G0 X5.630 Y-31.120

G1 F200 X0.000 Y-31.100
G1 X5.630 Y-31.120


